X: 10872
T: Drogheda Bay
R: reel
M: 4/4
K: Eminor
BGEF G2BG|~G2AG FDDA|BGEF G2Bd|1 gefd efdc:|2 gefd ~e3f||
~g3a bgag|eaag fddf|~g3a bgag|fedf ~e3f|
~g3a ~b2ag|eaag fddf|~g3e ~f3d|edfd efdc||

